swiss/communes/0037.svg

<?xml version="1.0" encoding="UTF-8" standalone="no"?>
<!-- Created with Inkscape (http://www.inkscape.org/) -->
<svg
   xmlns:svg="http://www.w3.org/2000/svg"
   xmlns="http://www.w3.org/2000/svg"
   version="1.0"
   width="217.14821"
   height="254.3553"
   id="svg2780">
  <defs
     id="defs2782" />
  <g
     transform="translate(-14.166755,-808.82735)"
     id="layer1">
    <path
       d="M 15.166755,809.82735 L 19.078537,974.15171 C 21.872659,1091.5263 223.60904,1091.5263 226.40318,974.15171 L 230.31496,809.82735 L 15.166755,809.82735 z"
       id="path3282"
       style="fill:#ffffff;fill-opacity:1;fill-rule:evenodd;stroke:#000000;stroke-width:2;stroke-linecap:butt;stroke-miterlimit:4;stroke-dashoffset:0;stroke-opacity:1" />
    <path
       d="M 123.26791,1014.4716 C 119.50998,929.61111 122.65119,892.42604 125.1756,864.58447 C 131.70038,864.84042 139.63953,866.38281 145.08108,869.14123 C 144.31686,869.57118 143.05963,870.12438 140.96796,870.8862 C 145.74583,872.14386 150.5237,873.21286 155.30157,875.74716 C 154.12115,876.71005 152.69959,877.19068 151.18844,877.49212 C 155.43044,879.84112 160.10694,881.92942 162.77997,885.21981 C 162.03004,885.92506 160.40515,886.19283 159.04077,886.59085 C 162.88969,888.94732 167.1961,890.3888 170.13374,894.56781 L 166.39454,895.56494 C 170.11989,899.4731 174.32708,902.99578 176.49038,908.15359 L 173.00046,908.90143 C 175.89882,914.05284 179.81221,918.39222 181.22671,924.73072 L 177.16535,925.10464 C 178.72724,929.41152 180.90975,933.51153 180.60351,938.44113 L 177.16535,938.56577 C 177.81463,942.80309 179.16181,947.61377 178.60927,952.15154 C 177.63356,951.42383 176.42618,950.9278 175.11934,950.53122 C 174.87856,956.06244 175.77888,962.52523 173.7483,968.35475 C 172.62654,967.11506 171.50478,966.60847 170.38302,966.36051 C 169.34965,971.76828 169.17418,978.20669 166.02062,983.31157 C 165.1605,981.8619 164.09671,981.02324 162.90461,980.56949 C 162.84214,986.00908 162.17392,991.58078 159.78861,996.02486 C 159.03557,995.19393 158.49805,994.36299 156.79725,993.53206 C 156.61972,997.72342 155.68679,1001.9293 153.18269,1005.1236 C 152.50613,1004.2096 151.77116,1003.2955 150.4406,1002.3815 C 149.76675,1007.1133 148.12072,1011.7329 145.455,1015.4687 L 143.21148,1013.1005 C 141.34607,1017.6749 139.51581,1022.2844 136.35627,1025.5646 L 134.98523,1022.3239 C 131.90899,1027.6114 128.97534,1032.9601 123.64298,1037.2807 C 117.41557,1032.8549 113.27303,1027.9078 109.68329,1022.8225 C 109.40043,1024.2846 108.4992,1025.1283 107.56441,1025.9385 C 103.68722,1022.4193 100.7776,1018.6099 100.21064,1014.0977 C 99.861409,1014.804 99.270241,1015.5103 98.590321,1016.2165 C 95.562945,1012.6864 93.198822,1009.5557 91.859755,1005.9961 C 91.930938,1007.2207 91.4139,1008.0531 90.488714,1008.6135 C 87.411217,1004.5131 85.631509,1000.042 84.879909,995.27702 C 84.589427,996.56531 84.206613,997.76127 83.259588,998.39302 C 80.977595,992.74318 80.461794,987.38771 80.143586,982.06517 L 76.778303,985.18117 C 75.282622,981.27578 74.451687,977.03802 74.285501,972.46788 C 73.496114,973.05118 72.706726,973.72123 71.917339,974.96068 C 71.155903,969.10726 71.308052,963.40609 72.540539,957.88499 L 68.925976,960.50243 C 68.765762,954.19331 69.252399,948.53103 70.421658,943.55138 L 67.181015,944.79778 C 67.454557,938.93105 69.030813,933.71568 71.294138,928.84384 L 67.679575,928.96848 C 68.665962,924.0941 70.871873,920.74412 73.16374,917.50159 L 69.050617,917.00303 C 70.440719,911.36275 73.385279,907.8987 76.404383,904.53902 L 72.665179,904.04046 C 74.443982,900.24674 77.661559,896.65856 81.763907,893.19677 L 77.650784,892.19965 C 81.335134,888.03168 85.72426,884.56848 90.737994,881.72988 L 87.995912,879.86028 C 91.449781,877.3134 94.938928,874.69479 99.712082,874.12684 L 96.471439,871.38476 C 103.95543,867.77495 111.67828,864.96137 120.15306,864.65419 C 120.68829,850.5635 120.42764,836.79116 117.66026,824.02152 C 120.65285,821.78169 123.80794,820.02935 127.1329,818.78663 C 128.61783,865.32673 117.32986,880.3803 123.26791,1014.4716"
       id="path6212"
       style="fill:#d33919;fill-opacity:1;fill-rule:evenodd;stroke:#000000;stroke-width:1px;stroke-linecap:butt;stroke-linejoin:miter;stroke-opacity:1" />
  </g>
</svg>

<svg xmlns="http://www.w3.org/2000/svg" version="1.0" width="217.148" height="254.355"><path d="m15.167 809.827 3.912 164.325c2.794 117.374 204.53 117.374 207.324 0l3.912-164.325H15.167z" style="fill:#fff;fill-opacity:1;fill-rule:evenodd;stroke:#000;stroke-width:2;stroke-linecap:butt;stroke-miterlimit:4;stroke-dashoffset:0;stroke-opacity:1" transform="translate(-14.167 -808.827)"/><path d="M123.268 1014.472c-3.758-84.86-.617-122.046 1.908-149.888 6.524.256 14.464 1.799 19.905 4.557-.764.43-2.021.983-4.113 1.745 4.778 1.258 9.556 2.327 14.334 4.861-1.18.963-2.602 1.444-4.114 1.745 4.242 2.35 8.919 4.437 11.592 7.728-.75.705-2.375.973-3.74 1.37 3.85 2.357 8.156 3.799 11.094 7.978l-3.74.997c3.726 3.908 7.933 7.43 10.096 12.589l-3.49.747c2.899 5.152 6.812 9.491 8.227 15.83l-4.062.374c1.562 4.307 3.745 8.407 3.439 13.336l-3.439.125c.65 4.237 1.997 9.048 1.444 13.586-.975-.728-2.183-1.224-3.49-1.62-.24 5.53.66 11.993-1.37 17.823-1.122-1.24-2.244-1.747-3.366-1.994-1.033 5.407-1.209 11.846-4.362 16.95-.86-1.45-1.924-2.288-3.116-2.742-.063 5.44-.731 11.012-3.116 15.456-.753-.831-1.29-1.662-2.992-2.493-.177 4.191-1.11 8.397-3.614 11.592-.677-.914-1.412-1.829-2.742-2.743-.674 4.732-2.32 9.352-4.986 13.088l-2.244-2.369c-1.865 4.575-3.695 9.184-6.855 12.465l-1.37-3.241c-3.077 5.287-6.01 10.636-11.343 14.957-6.227-4.426-10.37-9.373-13.96-14.458-.283 1.462-1.184 2.305-2.119 3.115-3.877-3.519-6.786-7.328-7.353-11.84-.35.706-.94 1.412-1.62 2.119-3.028-3.53-5.392-6.661-6.731-10.22.07 1.224-.446 2.056-1.371 2.617-3.078-4.1-4.857-8.572-5.61-13.337-.29 1.288-.672 2.484-1.62 3.116-2.281-5.65-2.797-11.005-3.115-16.328l-3.366 3.116c-1.495-3.905-2.326-8.143-2.492-12.713-.79.583-1.58 1.253-2.369 2.493-.761-5.854-.609-11.555.624-17.076l-3.615 2.617c-.16-6.309.326-11.971 1.496-16.95l-3.241 1.246c.274-5.867 1.85-11.082 4.113-15.954l-3.614.124c.986-4.874 3.192-8.224 5.484-11.466l-4.113-.499c1.39-5.64 4.334-9.104 7.353-12.464l-3.739-.499c1.779-3.793 4.997-7.381 9.099-10.843l-4.113-.997c3.684-4.168 8.073-7.632 13.087-10.47l-2.742-1.87c3.454-2.547 6.943-5.165 11.716-5.733l-3.24-2.742c7.483-3.61 15.206-6.424 23.681-6.73.535-14.091.275-27.864-2.493-40.633 2.993-2.24 6.148-3.993 9.473-5.235 1.485 46.54-9.803 61.593-3.865 195.685" style="fill:#d33919;fill-opacity:1;fill-rule:evenodd;stroke:#000;stroke-width:1px;stroke-linecap:butt;stroke-linejoin:miter;stroke-opacity:1" transform="translate(-14.167 -808.827)"/></svg>
